public/assets/icons/weapon_profile.svg

<?xml version="1.0" standalone="no"?>
<!DOCTYPE svg PUBLIC "-//W3C//DTD SVG 1.1//EN" "http://www.w3.org/Graphics/SVG/1.1/DTD/svg11.dtd" >
<svg xmlns="http://www.w3.org/2000/svg" xmlns:xlink="http://www.w3.org/1999/xlink" version="1.1" viewBox="0 -64 1024 1024" width="512" height="512">
  <g transform="matrix(1 0 0 -1 0 960)">
   <path fill="currentColor"
d="M729 824l-191 -126l25 -93l-259 -450l12 -47l47 13l259 450l93 25zM259 653l-123 -123v-287h138l40 68h-109v191l82 82h184l21 35l-10 34h-223zM778 653l-4 -69h45v-190l-82 -83h-187l-39 -68h254l122 123v287h-109z" />
  </g>

</svg>

<?xml version="1.0" encoding="UTF-8" standalone="no"?>
<svg
   version="1.1"
   viewBox="0 -64 1024 1024"
   width="512"
   height="512"
   id="svg1288"
   sodipodi:docname="weapon_profile.svg"
   inkscape:version="1.2.2 (732a01da63, 2022-12-09)"
   xmlns:inkscape="http://www.inkscape.org/namespaces/inkscape"
   xmlns:sodipodi="http://sodipodi.sourceforge.net/DTD/sodipodi-0.dtd"
   xmlns="http://www.w3.org/2000/svg"
   xmlns:svg="http://www.w3.org/2000/svg">
  <defs
     id="defs1292" />
  <sodipodi:namedview
     id="namedview1290"
     pagecolor="#ffffff"
     bordercolor="#000000"
     borderopacity="0.25"
     inkscape:showpageshadow="2"
     inkscape:pageopacity="0.0"
     inkscape:pagecheckerboard="0"
     inkscape:deskcolor="#d1d1d1"
     showgrid="false"
     inkscape:zoom="1.6191406"
     inkscape:cx="236.23643"
     inkscape:cy="256.30881"
     inkscape:window-width="1920"
     inkscape:window-height="1009"
     inkscape:window-x="-8"
     inkscape:window-y="-8"
     inkscape:window-maximized="1"
     inkscape:current-layer="svg1288" />
  <g
     transform="matrix(1,0,0,-1,0.5,914)"
     id="g1286">
    <path
       fill="currentColor"
       d="M 729,824 538,698 563,605 304,155 l 12,-47 47,13 259,450 93,25 z M 259,653 136,530 V 243 h 138 l 40,68 H 205 v 191 l 82,82 h 184 l 21,35 -10,34 z m 519,0 -4,-69 h 45 V 394 L 737,311 H 550 l -39,-68 h 254 l 122,123 v 287 z"
       id="path1284" />
  </g>
</svg>
